component-icons/svg/filemanager.svg

<?xml version="1.0" encoding="utf-8"?>
<!-- Generator: Adobe Illustrator 24.2.3, SVG Export Plug-In . SVG Version: 6.00 Build 0)  -->
<svg version="1.1" id="Layer_1" xmlns="http://www.w3.org/2000/svg" xmlns:xlink="http://www.w3.org/1999/xlink" x="0px" y="0px"
	 width="24px" height="24px" viewBox="0 0 24 24" enable-background="new 0 0 24 24" xml:space="preserve">
<path d="M14,16v2h4l2-2H14z M20,8h-6v2h4L20,8z M20,12h-6v2h4L20,12z M19,0H1v2h18V0z M5,14h1l2-2H5V14z M21,0v2h2V0H21z M1,24h18
	l4-4V4H1V24z M12,6h9v13.2L18.2,22H12V6z M3,6h7v16H3V6z M5,10h1l2-2H5V10z M5,18h1l2-2H5V18z"/>
</svg>

<svg id="Layer_1" data-name="Layer 1" xmlns="http://www.w3.org/2000/svg" viewBox="0 0 24 24">
  <defs>
    <style>
      .cls-1 {
        fill: gray;
      }
    </style>
  </defs>
  <title>filemanager</title>
  <path class="cls-1" d="M14,16v2h4l2-2Zm6-8H14v2h4Zm0,4H14v2h4ZM19,0H1V2H19ZM5,14H6l2-2H5ZM21,0V2h2V0ZM1,24H19l4-4V4H1ZM12,6h9V19.18L18.18,22H12ZM3,6h7V22H3Zm2,4H6L8,8H5Zm0,8H6l2-2H5Z"/>
</svg>
